X:1
T:The Mother’s Goodbye
T:William Howard Doane
T:The Mother’s Goodbye
T:Public Domain
T:Public Domain
T:Public Domain
C:William Howard Doane
Z:Public Domain
%%score ( 1 2 ) 3
L:1/8
M:6/8
K:C
V:1 treble 
V:2 treble 
V:3 bass 
V:1
 [EG] | [EG]>[DF][CE] [CE]>[B,D]C | C<[CE][CF] [EG]2 [EG]/[EG]/ | [FA][F^G][FA] [Ac]>[=GB][FA] | %4
w: 1.~Sit|down by the side of your|ther, my boy, You have on-|a mo- ment, I know; But|
w: 2.~You’ll|find in your satch- el a|ble, my boy, ’Tis the book|all o- thers the best; It|
w: 3.~Your|fa- ther is com- ing to|you good- bye, O how lone-|and sad we shall be; But|
 [EG]3- [EG]2 [EG]/[EG]/ | [EG]>[DF][CE] [CE][B,D][_B,C] | [A,C]<[CF][FA] [EG]2 [EG] | %7
w: you’ll * stay till|I give you my part- ing|ad- vice, ’Tis all that|
w: will * teach you|to live, it will help you|to die, And lead to|
w: when * far from|the scenes of your child- hood|and youth, You’ll think of|
 [EG]>[^D^F][EG] [EB]2 [DB]/[DA]/ | [EG]4 z [FG] | [EG]2 [FA]/[EG]/ [EG]2 [CE]/[EG]/ | %10
w: I have to be- stow. You|leave us|to seek for em- ploy- ment,|
w: the gates of the blest. I|gave you|to God, in your cra- dle,|
w: your fa- ther and me. I|want you|to feel ev- ery word I|
 [Ec]>[GB][FA] [EG]2 [EG]/[EG]/ | [Ec]2 [Ed]/[Ec]/ [DB]2 [Ec]/[DB]/ | [CA]3- [CA]2 [FA]/[FA]/ | %13
w: my boy, By the world you|have yet to be tried; But|in * all the|
w: my boy, I have taught you|the best that I knew; And|as * long as|
w: have said, For it came from|the depths of my love; And,|my * boy, if|
 [FA]>[EG][EG] [EG]<[CE][EG] | [FA][F^G][FA] [Fc]2 [^Fc]/[Fc]/ | [GB]>[FA][FG] [FG][FA][FB] | %16
w: temp- ta- tions and strug- gles|you meet, May your heart in|the Sav- ior con- fide. *|
w: His mer- cy per- mits me|to live, I shall ne- ver|cease pray- ing for you. Hold|
w: we ne- ver be- hold you|on earth, Will you prom- ise|to meet us a- bove? *|
 [Ec]3- [Ec]2 ||"^Refrain" [Ec] | [Ac]>[Ac][Ac] [Ac]2 [Ac] | [^GB]>[GB][GB] [GB]2 [GB] | %20
w: ||||
w: fast *|to|the right, Hold fast to|the right, Wher- ev- er|
w: ||||
 [FA]<[FA][FA] [FA][GB][FA] | [EG]3- [EG]2 [EG]/[EG]/ | [EG]>[DF][CE] [CE][B,D][_B,C] | %23
w: |||
w: your foot- steps may roam; O|for- * sake not|the way of sal- va- tion,|
w: |||
 [A,C]<[CF][FA] [Fc]2 [^Fc]/[Fc]/ | [GB]>[FA][FG] [FG][FA][FB] | [Ec]3- [Ec]2 |] %26
w: |||
w: my boy, That you learned from|your mo- ther at home. *||
w: |||
V:2
 x | x5 C | C/ x11/2 | x6 | x6 | x6 | x6 | x6 | x6 | x6 | x6 | x6 | x6 | x6 | x6 | x6 | x5 || x | %18
w: |mo-|ly||||||||||||||||
w: |Bi-|of||||||||||||||||
w: |bid|ly||||||||||||||||
 x6 | x6 | x6 | x6 | x6 | x6 | x6 | x5 |] %26
w: ||||||||
w: ||||||||
w: ||||||||
V:3
 [C,C] | [C,C]>[C,G,][C,G,] [C,G,]>[C,F,][C,E,] | [C,E,]<[C,G,][C,A,] [C,C]2 [C,C]/[C,C]/ | %3
 [F,C][F,C][F,C] [F,C]>[F,C][F,C] | [C,C]3- [C,C]2 [C,C]/[C,C]/ | %5
 [C,C]>[C,G,][C,G,] [C,G,][D,G,][E,G,] | [F,A,]<[F,A,][F,C] [C,C]2 [C,^A,] | %7
 [B,,B,]>[B,,B,][B,,B,] [B,,G,]2 [B,,^F,]/[B,,B,]/ | [E,B,]4 z [D,B,] | %9
 [C,C]2 [C,C]/[C,C]/ [C,C]2 [C,G,]/[C,C]/ | [C,G,]>[C,A,][C,B,] [C,C]2 [C,G,]/[C,G,]/ | %11
 [A,,A,]2 [A,,A,]/[A,,A,]/ [E,^G,]2 [E,G,]/[E,G,]/ | [A,,A,]3- [A,,A,]2 [F,C]/[F,C]/ | %13
 [C,C]>[C,C][C,C] [C,C]<[C,G,][C,C] | [F,C][F,C][F,C] [F,A,]2 [D,A,]/[D,D]/ | %15
 [G,D]>[G,C][G,B,] [G,B,][G,C][G,D] | [C,C]3 [C,C]2 || [A,C] | [A,E]>[A,E][A,E] [A,E]2 [A,E] | %19
 [E,D]>[E,D][E,D] [E,D]2 [E,D] | [F,C]<[F,C][F,C] [F,C][F,C][F,C] | [C,C]3- [C,C]2 [C,C]/[C,C]/ | %22
 [C,C]>[C,G,][C,G,] [C,G,][C,G,][C,G,] | [F,A,]<[F,A,][F,C] [F,A,]2 [D,A,]/[D,D]/ | %24
 [G,D]>[G,C][G,B,] [G,B,][G,C][G,D] | [C,C]3- [C,C]2 |] %26

